!!!COM: Bach, Johann Sebastian
!!!CDT: 1685/3//-1750/7/28/
!!!OTL@@DE: Komm, heiliger Geist, Herre Gott
!!!AGN: 4-Part Chorale
!!!SCT: BH 069
!!!SCT: BWV 226
!!!ONB: Transposed down a minor third from original BWV 226 chorale.
**harm	**root	**kern	**kern	**kern	**kern
!	!	!bass	!tenor	!alto	!soprno
*	*Iorgan	*Iorgan	*Iorgan	*Iorgan	*Iorgan
*	*	*clefF4	*clefF4	*clefG2	*clefG2
*M4/4	*M4/4	*M4/4	*M4/4	*M4/4	*M4/4
*met(c)	*met(c)	*met(c)	*met(c)	*met(c)	*met(c)
*MM60	*MM60	*MM60	*MM60	*MM60	*MM60
*k[f#]	*k[f#]	*k[f#]	*k[f#]	*k[f#]	*k[f#]
*G:	*G:	*G:	*G:	*G:	*G:
I	4GG	4G	4B	4g	4dd
=1	=1	=1	=1	=1	=1
IV	4CC	4C	8c	4g	4ee
.	.	.	8B	.	.
V	4DD	4D	4A	4f#	8dd
.	.	.	.	.	8cc
vi	4EE	4E	4G	4g	8b
.	.	.	.	.	8cc
Ib	4GG	8BB	4G	8d	4dd
.	.	8C	.	8e	.
=2	=2	=2	=2	=2	=2
V;	2DD;	2D;	2d;	2f#;	2a;
I	4GG	8G	4d	4g	4b
.	.	8F#	.	.	.
viib/V	4CC#	4E	4G	4g	4cc#
=3	=3	=3	=3	=3	=3
V;	2DD;	2D;	2A;	2f#;	2dd;
r	4r	4r	4r	4r	4r
Ib	4GG	4BB	4G	4g	4dd
=4	=4	=4	=4	=4	=4
IV	4CC	4C	8c	4g	4ee
.	.	.	8B	.	.
V	4DD	4D	8A	8f#	4dd
.	.	.	8G	8e	.
V7d	8DD	8C	8F#	4d	8a
Ib	8GG	8BB	8G	.	8b
ii	4AA	4AA	4C	8e	4cc
.	.	.	.	8f#	.
=5	=5	=5	=5	=5	=5
Ib	4GG	8BB	4D	4g	4b
.	.	8C	.	.	.
V	4DD	4D	8d	4f#	4a
.	.	.	8c	.	.
I;	4GG;	4GG;	4B;	4d;	4g;
I	4GG	4G	4B	4d	4g
=6	=6	=6	=6	=6	=6
Vb	4DD	4F#	4A	4d	8a
.	.	.	.	.	8b
IVb	4CC	8E	8G	4e	4cc
.	.	8F#	8A	.	.
I	4GG	4G	4B	8d	8b
.	.	.	.	8e	8cc
Vb	4DD	8F#	8A	[4f#	[4dd
.	.	8E	8G	.	.
!!linebreak: 4
=7	=7	=7	=7	=7	=7
Vb	4DD	8F#	4A	8f#]	4dd]
.	.	8E	.	8g	.
V	4DD	8D	4d	8f#	4a
.	.	8C#	.	8e	.
Ib	4GG	8BB	4d	8d	8g
.	.	8GG	.	8B	8f#
V/V	4AA	4AA	8A	4c#	4e
.	.	.	8G	.	.
=8	=8	=8	=8	=8	=8
V;	2DD;	2D;	2F#;	2A;	2d;
r	4r	4r	4r	4r	4r
V	4DD	8D	4F#	4A	4d
.	.	8Cn	.	.	.
=9	=9	=9	=9	=9	=9
Ib	8GG	8BB	4G	8d	4g
IV	8CC	8C	.	8e	.
viib	4FF#	8BB	4c	4f#	4a
.	.	8AA	.	.	.
I	4GG	4GG	8d	4.g	8b
.	.	.	8c	.	8cc
I	8GG	8G	8B	.	[4dd
vb	8DD	8Fn	8A	8a	.
=10	=10	=10	=10	=10	=10
V7/ii	4EE	4E	8G#	4.b	4dd]
.	.	.	8F#y	.	.
ii	4AA	4AA	4E	.	4cc
.	.	.	.	8a	.
V/vi	4BB	4BB	4D#	8g	4b
.	.	.	.	8f#	.
iib	4AA	4C	4E	4e	4a
=11	=11	=11	=11	=11	=11
V/vi;	2BB;	2BB;	2F#;	2d#;	2b;
r	4r	4r	4r	4r	4r
vi	4EE	4E	8G	4g	8b
.	.	.	8A	.	8cc
=12	=12	=12	=12	=12	=12
viib/V/V	4GG#	4B	4B	8f#	4dd
.	.	.	.	8g#	.
V/V	4AA	8A	4c#	4a	4ee
.	.	8G	.	.	.
Vb	4DD	8F#	4.d	8a	4dd
.	.	8E	.	8gn	.
V	4DD	4D	.	8f#	4a
.	.	.	8cn	8e	.
!!linebreak: 4
=13	=13	=13	=13	=13	=13
I	4GG	8G	8B	4d	4b
.	.	8F#	8A	.	.
viib/V	4CC#	4E	4G	4e	4cc#
V;	4DD;	4D;	4A;	4f#;	4dd;
I	4GG	4G	4B	8g	4dd
.	.	.	.	8f#	.
=14	=14	=14	=14	=14	=14
IV	4CC	4C	4c	8e	4ee
.	.	.	.	8f#	.
Ib	4GG	8BB	4d	4g	4dd
.	.	8C	.	.	.
V	4DD	4D	4d	4f#	8a
.	.	.	.	.	8b
IVb	4CC	8E	8G	4e	4cc
.	.	8F#	8A	.	.
=15	=15	=15	=15	=15	=15
I	8GG	8G	8B	8d	4b
IV7	8CC	8C	8G	8e	.
V	4DD	4D	8d	4f#	4a
.	.	.	8c	.	.
I;	4GG;	4GG;	4B;	4d;	4g;
IV	4CC	8C	4c	4e	4g
.	.	8BB	.	.	.
=16	=16	=16	=16	=16	=16
ii	4AA	4AA	8c	4e	8a
.	.	.	8B	.	8b
ii	4AA	4A	4A	8e	4cc
.	.	.	.	8f#	.
vi	4EE	4E	8B	[2g	8b
.	.	.	8A	.	8cc
Ib	4GG	8BB	8G	.	[4dd
.	.	8C	8A	.	.
=17	=17	=17	=17	=17	=17
I	4GG	8D	8B	4g]	4dd]
.	.	8E	8c#	.	.
Vb	4DD	8F#	2d	4f#	4a
.	.	8D	.	.	.
Ib	4GG	8B	.	8g	8g
.	.	8G	.	[8d	8f#
V/V	4AA	4A	8A	8d]	4e
.	.	.	8G	8c#	.
=18	=18	=18	=18	=18	=18
V;	2DD;	2D;	2F#;	2A;	2d;
r	4r	4r	4r	4r	4r
iii	4BB	4BB	4F#	8d	4d
.	.	.	.	8cn	.
!!linebreak: 4
=19	=19	=19	=19	=19	=19
vi	8EE	4E	8G	8B	4g
IVb	8CC	.	8c	8e	.
Vb	4DD	4F#	8B	8d	4a
.	.	.	8A	8c	.
I	2GG	8G	4.G	4.B	8b
.	.	8A	.	.	8cc
.	.	8B	.	.	[4dd
.	.	8A	8A	16c	.
.	.	.	.	16d	.
=20	=20	=20	=20	=20	=20
V7b/ii	4EE	8G#	4.B	4e	4dd]
.	.	8E	.	.	.
ii	4AA	4A	.	4e	4cc
.	.	.	8A	.	.
vi	4EE	8E	8Gn	4e	4b
.	.	8D	8F#	.	.
iib	4AA	8C	4E	8e	4a
.	.	8BB	.	8d	.
=21	=21	=21	=21	=21	=21
ii7b	4AA	8C	2A	2c	4e
.	.	8AA	.	.	.
V7	4DD	4D	.	.	4f#
I;	4GG;	4GG;	4G;	4B;	4g;
V	4DD	4D	4F#	4d	4a
=22	=22	=22	=22	=22	=22
I	4GG	8GG	2.G	[2d	4b
.	.	8AA	.	.	.
Ib	4GG	4BB	.	.	4g
IV	2CC	2C	.	8d]	2e
.	.	.	.	8B	.
.	.	.	8G	4c	.
.	.	.	8F#	.	.
=23	=23	=23	=23	=23	=23
I;	4GG;	4G;	4G;	4B;	4d;
Vb	4DD	4F#	2A	2d	8a
.	.	.	.	.	16b
.	.	.	.	.	16cc
I	4GG	8G	.	.	2b
.	.	8F#	.	.	.
vi	4EE	8E	[4G	[4e	.
.	.	8D	.	.	.
=24	=24	=24	=24	=24	=24
ii7b	4AA	8C	4G]	4e]	2a
.	.	8AA	.	.	.
V	4DD	4D	16F#	8d	.
.	.	.	16E	.	.
.	.	.	8F#	8c	.
I;	4GG;	4GG;	4D;	4B;	4g;
====	====	====	====	====	====
*-	*-	*-	*-	*-	*-
!!!ONB1: changed line measure 6, beat 2: vi chord to a IVb chord, since 
!!!ONB2: there is no B and the C is not dissonant and does not resolve.
!!!ONB3: Now m.6, b.2 matches the analysis of m.14, b.4.
!!!YEC: Copyright 1994, David Huron
!!!YEC: Changes/Additions 2001 by Craig Stuart Sapp
!!!YEN: United States of America
!!!SMA: 371 Bach Chorales, edited by Ludwig Erk, C.F. Peters
!!!PDT: 1850, 1865
